projects/gl-ng-frontend/src/assets/img/icon/chart/chart-grayscale.svg

<?xml version="1.0" encoding="UTF-8"?>
<svg enable-background="new 0 0 24 24" version="1.1" viewBox="0 0 24 24" xmlns="http://www.w3.org/2000/svg">
 <style type="text/css">.st0{fill:#5A5A5A;}</style>
 <path class="st0" d="m21 0h-17.9c-1.7 0-3.1 1.4-3.1 3.1v17.7c0 1.8 1.4 3.2 3.1 3.2h17.8c1.7 0 3.1-1.4 3.1-3.1v-17.8c0.1-1.7-1.3-3.1-3-3.1zm-14.3 8.9c0.8 0 1.3 0.6 1.3 1.3v0.2l1.3 0.6c0.2-0.2 0.6-0.4 0.9-0.4 0.2 0 0.4 0 0.6 0.1l1.8-1.7c-0.1-0.2-0.1-0.4-0.1-0.6 0-0.7 0.6-1.3 1.3-1.3 0.3 0 0.5 0.1 0.7 0.2l1.5-1.1v-0.4c0-0.7 0.6-1.3 1.3-1.3s1.3 0.6 1.3 1.3-0.6 1.3-1.3 1.3c-0.3 0-0.5-0.1-0.7-0.2l-1.6 1.2c0 0.1 0.1 0.3 0.1 0.4 0 0.7-0.6 1.3-1.3 1.3-0.2 0-0.4 0-0.6-0.1l-1.8 1.8c0.1 0.2 0.1 0.4 0.1 0.6 0 0.7-0.6 1.3-1.3 1.3s-1.3-0.7-1.3-1.4v-0.2l-1.3-0.7c-0.2 0.2-0.6 0.4-0.9 0.4-0.7 0-1.3-0.6-1.3-1.3s0.6-1.3 1.3-1.3zm12.4 10.6h-14.2c-0.2 0-0.4-0.2-0.4-0.4s0.2-0.4 0.4-0.4h0.5v-4.9c0-0.2 0.2-0.4 0.4-0.4h1.8c0.2 0 0.4 0.2 0.4 0.4v4.9h0.9v-3.1c0-0.2 0.2-0.4 0.4-0.4h1.8c0.2 0 0.4 0.2 0.4 0.4v3.1h0.9v-6.7c0-0.2 0.2-0.4 0.4-0.4h1.8c0.2 0 0.4 0.2 0.4 0.4v6.7h1v-9.4c0-0.2 0.2-0.4 0.4-0.4h1.8c0.2 0 0.4 0.2 0.4 0.4v9.3h0.5c0.2 0 0.4 0.2 0.4 0.4s-0.2 0.5-0.4 0.5z"/>
</svg>

<?xml version="1.0" encoding="utf-8"?>
<!-- Generator: Adobe Illustrator 25.0.0, SVG Export Plug-In . SVG Version: 6.00 Build 0)  -->
<svg version="1.1" id="Layer_1" xmlns="http://www.w3.org/2000/svg" xmlns:xlink="http://www.w3.org/1999/xlink" x="0px" y="0px"
	 viewBox="0 0 24 24" style="enable-background:new 0 0 24 24;" xml:space="preserve">
<style type="text/css">
	.st0{fill:#5A5A5A;}
</style>
<path class="st0" d="M21,0H3.1C1.4,0,0,1.4,0,3.1v17.7C0,22.6,1.4,24,3.1,24h17.8c1.7,0,3.1-1.4,3.1-3.1V3.1C24.1,1.4,22.7,0,21,0z
	 M6.7,8.9C7.5,8.9,8,9.5,8,10.2v0.2L9.3,11c0.2-0.2,0.6-0.4,0.9-0.4c0.2,0,0.4,0,0.6,0.1L12.6,9c-0.1-0.2-0.1-0.4-0.1-0.6
	c0-0.7,0.6-1.3,1.3-1.3c0.3,0,0.5,0.1,0.7,0.2L16,6.2V5.8c0-0.7,0.6-1.3,1.3-1.3s1.3,0.6,1.3,1.3S18,7.1,17.3,7.1
	c-0.3,0-0.5-0.1-0.7-0.2L15,8.1c0,0.1,0.1,0.3,0.1,0.4c0,0.7-0.6,1.3-1.3,1.3c-0.2,0-0.4,0-0.6-0.1l-1.8,1.8
	c0.1,0.2,0.1,0.4,0.1,0.6c0,0.7-0.6,1.3-1.3,1.3S8.9,12.7,8.9,12v-0.2l-1.3-0.7c-0.2,0.2-0.6,0.4-0.9,0.4c-0.7,0-1.3-0.6-1.3-1.3
	S6,8.9,6.7,8.9z M19.1,19.5H4.9c-0.2,0-0.4-0.2-0.4-0.4c0-0.2,0.2-0.4,0.4-0.4h0.5v-4.9c0-0.2,0.2-0.4,0.4-0.4h1.8
	c0.2,0,0.4,0.2,0.4,0.4v4.9h0.9v-3.1c0-0.2,0.2-0.4,0.4-0.4h1.8c0.2,0,0.4,0.2,0.4,0.4v3.1h0.9V12c0-0.2,0.2-0.4,0.4-0.4h1.8
	c0.2,0,0.4,0.2,0.4,0.4v6.7h1V9.3c0-0.2,0.2-0.4,0.4-0.4h1.8c0.2,0,0.4,0.2,0.4,0.4v9.3h0.5c0.2,0,0.4,0.2,0.4,0.4
	C19.5,19.2,19.3,19.5,19.1,19.5z"/>
</svg>
